Origami/32x32/apps/rapidsvn.svg

<svg width="32" height="32" version="1.1" viewBox="0 0 32 32" xmlns="http://www.w3.org/2000/svg">
 <path d="m16 2a14 14 0 0 0 -14 14 14 14 0 0 0 14 14 14 14 0 0 0 14 -14 14 14 0 0 0 -14 -14z" style="fill:#4f4f4f"/>
 <path d="m16 2a14 14 0 0 0 -14 14 14 14 0 0 0 0.0215 0.414 14 14 0 0 1 13.978 -13.414 14 14 0 0 1 13.979 13.586 14 14 0 0 0 0.021 -0.586 14 14 0 0 0 -14 -14z" fill="#ffffff" style="opacity:.1"/>
 <path d="m2.0215 16.414a14 14 0 0 0 -0.0215 0.586 14 14 0 0 0 14 14 14 14 0 0 0 14 -14 14 14 0 0 0 -0.021 -0.414 14 14 0 0 1 -13.979 13.414 14 14 0 0 1 -13.978 -13.586z" opacity=".2"/>
 <path d="m19 24.198719c0 0.973668-1.353022 3.801281-3 3.801281-2.056263 0-5-2.241194-5-3.709939 0-1.468743 1.943736-2.290061 4-2.290061 2.056263 0 4 1.158461 4 2.198719zm5.000001-7.687896a2.000001 1.4891763 0 0 1 -2.000001 1.489177 2.000001 1.4891763 0 0 1 -2.000001 -1.489177 2.000001 1.4891763 0 0 1 2.000001 -1.489176 2.000001 1.4891763 0 0 1 2.000001 1.489176zm2.127387-9.1765295s-7.472347 6.4150395-15.509624 6.6657065c-2.2042309 0.068678-3.8155447-0.483887-4.8986827-1-1.0831371-0.516129-2.4541202-1.815392-2.4541202-1.815392l-0.4273084 1.045422s0.7324863 0.690584 1.0852753 0.944351c0.2852238 1.526221 1.4206297 5.825619 6.077072 5.825619 3.942178 0 5.435273-3.210172 5.858447-4.820919 5.841602-1.664664 10.977655-6.0429429 10.977655-6.0429429z" style="opacity:.1"/>
 <path d="m19 23.198719c0 0.973668-1.353022 3.801281-3 3.801281-2.056263 0-5-2.241194-5-3.709939 0-1.468743 1.943736-2.290061 4-2.290061 2.056263 0 4 1.158461 4 2.198719zm5.000001-7.687896c1e-6 0.82245-0.895431 1.489177-2.000001 1.489177s-2.000002-0.666727-2.000001-1.489177c0-0.822449 0.895431-1.489176 2.000001-1.489176s2.000001 0.666727 2.000001 1.489176zm1.568183-8.7164839s-6.913143 5.9549939-14.95042 6.2056609c-2.2042309 0.068678-3.8155447-0.483887-4.8986827-1-1.0831371-0.516129-2.1016279-1.514898-2.1016279-1.514898l-0.4727627 0.991887s0.4254483 0.443625 0.7782373 0.697392c0.2852238 1.526221 1.4206297 5.825619 6.077072 5.825619 3.942178 0 5.435273-3.210172 5.858447-4.820919 5.841602-1.664664 10.449001-5.6410666 10.449001-5.6410666z" style="fill:#e6e6e6"/>
</svg>

<svg xmlns="http://www.w3.org/2000/svg" width="32" height="32" version="1.1" viewBox="0 0 32 32">
 <path style="fill:#4f4f4f" d="m16 2a14 14 0 0 0 -14 14 14 14 0 0 0 14 14 14 14 0 0 0 14 -14 14 14 0 0 0 -14 -14z"/>
 <path fill="#ffffff" style="opacity:0.1" d="m16 2a14 14 0 0 0 -14 14 14 14 0 0 0 0.0215 0.414 14 14 0 0 1 13.978 -13.414 14 14 0 0 1 13.979 13.586 14 14 0 0 0 0.021 -0.586 14 14 0 0 0 -14 -14z"/>
 <path opacity=".2" d="m2.0215 16.414a14 14 0 0 0 -0.0215 0.586 14 14 0 0 0 14 14 14 14 0 0 0 14 -14 14 14 0 0 0 -0.021 -0.414 14 14 0 0 1 -13.979 13.414 14 14 0 0 1 -13.978 -13.586z"/>
 <path style="opacity:0.1" d="M 19,24.198719 C 19,25.172387 17.646978,28 16,28 13.943737,28 11,25.758806 11,24.290061 11,22.821318 12.943736,22 15,22 c 2.056263,0 4,1.158461 4,2.198719 z m 5.000001,-7.687896 A 2.000001,1.4891763 0 0 1 22,18 2.000001,1.4891763 0 0 1 19.999999,16.510823 2.000001,1.4891763 0 0 1 22,15.021647 a 2.000001,1.4891763 0 0 1 2.000001,1.489176 z m 2.127387,-9.1765295 c 0,0 -7.472347,6.4150395 -15.509624,6.6657065 C 8.4135331,14.068678 6.8022193,13.516113 5.7190813,13 4.6359442,12.483871 3.2649611,11.184608 3.2649611,11.184608 L 2.8376527,12.23003 c 0,0 0.7324863,0.690584 1.0852753,0.944351 C 4.2081518,14.700602 5.3435577,19 10,19 c 3.942178,0 5.435273,-3.210172 5.858447,-4.820919 5.841602,-1.664664 10.977655,-6.0429429 10.977655,-6.0429429 z"/>
 <path style="fill:#e6e6e6" d="M 19,23.198719 C 19,24.172387 17.646978,27 16,27 13.943737,27 11,24.758806 11,23.290061 11,21.821318 12.943736,21 15,21 c 2.056263,0 4,1.158461 4,2.198719 z m 5.000001,-7.687896 C 24.000002,16.333273 23.10457,17 22,17 c -1.10457,0 -2.000002,-0.666727 -2.000001,-1.489177 0,-0.822449 0.895431,-1.489176 2.000001,-1.489176 1.10457,0 2.000001,0.666727 2.000001,1.489176 z m 1.568183,-8.7164839 c 0,0 -6.913143,5.9549939 -14.95042,6.2056609 C 8.4135331,13.068678 6.8022193,12.516113 5.7190813,12 4.6359442,11.483871 3.6174534,10.485102 3.6174534,10.485102 l -0.4727627,0.991887 c 0,0 0.4254483,0.443625 0.7782373,0.697392 C 4.2081518,13.700602 5.3435577,18 10,18 c 3.942178,0 5.435273,-3.210172 5.858447,-4.820919 5.841602,-1.664664 10.449001,-5.6410666 10.449001,-5.6410666 z"/>
</svg>
